X: 62
T:Impertinence
M:C|
L:1/8
Z:alf.warnock@rogers.com
K:Bb
D2|"Gm"G2B2"D"A2G^F|"G"G4D4|"Cm"ABc2"D"B2A2|"Gm"B4G4|
Bcd2"Cm"c2B2|"F"c4"Bb"F2d2|"Cm"e4c4|"D"d6:|
d2|"Bb"def2e2d2|"Cm"e4c4|"F7"cde2d2c2|"Bb"d4B4|
"Gm"Bcd2"Cm"c2B2|"F"ABc2 "Bb"B2A2|"Gm"B2AB "Cm"G2G2|"D"^F4D4||
"Gm"G2A2"D"BAG^F|"Gm"G4D4|"Cm"edcBA3B|"D"c4 ^F4|
"Gm"G2A2"D"BAG^F|"Eb"G3A "Bb"B4|"Cm"edcB "D"A4|"Gm"G6|]
